X:0
%%scale 1
%%continueall
T:Tablatura de flauta doce
T:Recorder tablature
M:none
K:C
V:1
%%tablature 115 rec_tabh rec_tabn rec_tabbar
L:1/1
F ^/F ^F _/G =G |
w: P123.4567 P123.456; Pxxx.xxx/ Pxxx.xxx' Pxxx.xxx
^/G ^G _/A =A |
w: Pxxx.xx; Pxxx.xx/ Pxxx.xxox Pxxx.xx
_3/B _B _/B =B | _/c y=c |
w: Pxxx.x/xx Pxxx.xoxx Pxxx.x Pxxx.oxxx Pxxx.ox Pxxx
V:2
L:1/1
C ^/C ^C _/D =D |
^/D ^D _/E =E |
_/F =F ^/F ^F | _/G y=G |

